img/icon-school.svg

<svg width="60" height="60" viewBox="0 0 60 60" fill="none" xmlns="http://www.w3.org/2000/svg">
<g clip-path="url(#clip0)">
<path fill-rule="evenodd" clip-rule="evenodd" d="M29.589 4.9315L57.4315 14.8972V11.8151L29.589 1.8493L1.74658 11.8151V14.8972L29.589 4.9315Z" fill="#00A4B5"/>
<path d="M6.26712 54.7603C6.26712 54.863 6.26712 54.9658 6.36986 55.0685C6.4726 55.1712 6.57534 55.1712 6.67808 55.1712H27.3288V56.0959C27.3288 56.7123 27.5342 57.3288 27.9452 57.7397C28.3562 58.1507 28.9726 58.3562 29.589 58.3562C30.2055 58.3562 30.8219 58.1507 31.2329 57.7397C31.6438 57.3288 31.8493 56.7123 31.8493 56.0959V55.1712H52.5C52.6027 55.1712 52.7055 55.1712 52.8082 55.0685C52.911 54.9658 52.911 54.863 52.911 54.7603V53.4247H32.4658C32.363 53.9384 32.0548 54.3493 31.7466 54.6575C31.2329 55.1712 30.411 55.4795 29.6918 55.4795C28.8699 55.4795 28.1507 55.1712 27.637 54.6575C27.3288 54.3493 27.0205 53.9384 26.9178 53.4247H6.26712V54.7603ZM5.13699 56.3014C4.72603 55.8904 4.52055 55.3767 4.52055 54.7603V53.4247H2.77397V20.2397H28.3562V21.1644C28.3562 21.4726 28.4589 21.7808 28.7671 21.9863C28.9726 22.1918 29.2808 22.3973 29.589 22.3973C29.8973 22.3973 30.2055 22.2945 30.411 21.9863C30.6164 21.7808 30.8219 21.4726 30.8219 21.1644V20.2397H56.4041V53.4247H54.6575V54.7603C54.6575 55.3767 54.452 55.8904 54.0411 56.3014C53.6301 56.7123 53.1164 56.9178 52.5 56.9178H33.4931C33.2877 57.637 32.9795 58.3562 32.363 58.8699C31.6438 59.589 30.6164 60 29.4863 60C28.3562 60 27.3288 59.589 26.6096 58.8699C26.0959 58.3562 25.6849 57.637 25.4794 56.9178H6.67808C6.06164 56.9178 5.54794 56.7123 5.13699 56.3014ZM30.5137 23.9384V53.4247C30.7192 53.2192 30.8219 52.911 30.8219 52.6027V51.6781H54.6575V21.9863H32.4658C32.363 22.5 32.0548 22.911 31.7466 23.2192C31.3356 23.5274 30.9247 23.8356 30.5137 23.9384ZM28.7671 53.4247V24.0411C28.2534 23.9384 27.8425 23.6301 27.5342 23.3219C27.226 23.0137 26.9178 22.6027 26.8151 22.089H4.52055V51.7808H28.3562V52.7055C28.3562 52.911 28.4589 53.2192 28.7671 53.4247ZM29.589 6.78082L0 17.363V10.5822C9.86301 7.08904 19.726 3.49315 29.589 0C39.452 3.49315 49.3151 7.08904 59.1781 10.5822V17.363L29.589 6.78082ZM1.74658 14.8973L29.589 4.93151L57.4315 14.8973V11.8151L29.589 1.84932L1.74658 11.8151V14.8973Z" fill="#003333"/>
</g>
<defs>
<clipPath id="clip0">
<rect width="59.1781" height="60" fill="white"/>
</clipPath>
</defs>
</svg>

<?xml version="1.0" encoding="utf-8"?>
<!-- Generator: Adobe Illustrator 23.0.1, SVG Export Plug-In . SVG Version: 6.00 Build 0)  -->
<svg version="1.1" id="Слой_1" xmlns="http://www.w3.org/2000/svg" xmlns:xlink="http://www.w3.org/1999/xlink" x="0px" y="0px"
	 viewBox="0 0 59.2 60" style="enable-background:new 0 0 59.2 60;" xml:space="preserve">
<style type="text/css">
	.st0{fill:none;}
	.st1{fill-rule:evenodd;clip-rule:evenodd;fill:#00A4B5;}
	.st2{fill:#003333;}
</style>
<g>
	<rect class="st0" width="59.2" height="60"/>
	<path class="st1" d="M29.6,4.9l27.8,10v-3.1l-27.8-10l-27.8,10v3.1L29.6,4.9z"/>
	<path class="st2" d="M6.3,54.8c0,0.1,0,0.2,0.1,0.3c0.1,0.1,0.2,0.1,0.3,0.1h20.7v0.9c0,0.6,0.2,1.2,0.6,1.6c0.4,0.4,1,0.6,1.6,0.6
		c0.6,0,1.2-0.2,1.6-0.6c0.4-0.4,0.6-1,0.6-1.6v-0.9h20.7c0.1,0,0.2,0,0.3-0.1c0.1-0.1,0.1-0.2,0.1-0.3v-1.3H32.5
		c-0.1,0.5-0.4,0.9-0.7,1.2c-0.5,0.5-1.3,0.8-2.1,0.8c-0.8,0-1.5-0.3-2.1-0.8c-0.3-0.3-0.6-0.7-0.7-1.2H6.3V54.8z M5.1,56.3
		c-0.4-0.4-0.6-0.9-0.6-1.5v-1.3H2.8V20.2h25.6v0.9c0,0.3,0.1,0.6,0.4,0.8c0.2,0.2,0.5,0.4,0.8,0.4c0.3,0,0.6-0.1,0.8-0.4
		c0.2-0.2,0.4-0.5,0.4-0.8v-0.9h25.6v33.2h-1.7v1.3c0,0.6-0.2,1.1-0.6,1.5c-0.4,0.4-0.9,0.6-1.5,0.6h-19c-0.2,0.7-0.5,1.4-1.1,2
		c-0.7,0.7-1.7,1.1-2.9,1.1s-2.2-0.4-2.9-1.1c-0.5-0.5-0.9-1.2-1.1-2H6.7C6.1,56.9,5.5,56.7,5.1,56.3z M30.5,23.9v29.5
		c0.2-0.2,0.3-0.5,0.3-0.8v-0.9h23.8V22H32.5c-0.1,0.5-0.4,0.9-0.7,1.2C31.3,23.5,30.9,23.8,30.5,23.9z M28.8,53.4V24
		c-0.5-0.1-0.9-0.4-1.2-0.7c-0.3-0.3-0.6-0.7-0.7-1.2H4.5v29.7h23.8v0.9C28.4,52.9,28.5,53.2,28.8,53.4z M29.6,6.8L0,17.4v-6.8
		C9.9,7.1,19.7,3.5,29.6,0c9.9,3.5,19.7,7.1,29.6,10.6v6.8L29.6,6.8z M1.7,14.9l27.8-10l27.8,10v-3.1l-27.8-10l-27.8,10V14.9z"/>
</g>
</svg>
